X:1
T:The Silver Star
T:Horatio Richmond Palmer
T:The Silver Star
T:Public Domain
T:Public Domain
T:Public Domain
C:Horatio Richmond Palmer
Z:Public Domain
%%score ( 1 2 ) ( 3 4 )
L:1/8
M:4/4
K:F
V:1 treble 
V:2 treble 
V:3 bass 
V:4 bass 
V:1
 [CF]>[CG] | [FA]2 [FA]2 ([FA][GB])([Ac][Bd]) | [Ac][GB][GB][GB] [GB]2 [EG]>[FA] | %3
w: 1.~On the|brow of night * there *|shines a sil- ver star, On the|
w: 2.~’Tis the|lamp of God * high *|hang- ing in the air, ’Tis the|
w: 3.~Bring your|gifts of gold, * of *|frank- in- cense and myrrh, Bring your|
 [GB]2 [GB]2 ([GB][Ac])([Bd][ce]) | [Bd][Ac][Ac][Ac] [Ac]2 [Ac]>[Ac] | [Af]2 [Af]2 [Ge]2 [GA][GA] | %6
w: brow of night * there *|shines a sil- ver star, And the|wise men gaze on its|
w: lamp of God * high *|hang- ing in the air, And it|guides our feet thro’ the|
w: gifts of gold, * of *|frank- in- cense and myrrh, For the|King we own is on|
 [Fd]2 [Fd]2 [Fc]2 [Ac][Ac] | [Af]2 [Af]2 [Ge]2 [GA]2 | [Fd][Fd][Fd][Fd] [Fc]2 [EA]>[EG] | %9
w: heav- ’nly rays, Till they|find the King, Whose|throne they sought a- far, In the|
w: roy- al street; There is|sweet soul- rest for|those who seek it there, From the|
w: Da- vid’s throne; Let the|ho- ly Child your|best af- fect- ions stir; ’Tis the|
 [DF]2 [DF]2 [DF]2 [DF]2 | [CF]4 z2 ||"^Refrain" c>d | (z2 E>G B2) c>d | z2 A>G F2 c>c | %14
w: Babe of Beth- le-|hem.|Sil- ver|* * * star, ho-|* * * light, Shine|
w: Babe of Beth- le-|hem.||||
w: Babe of Beth- le-|hem.||||
 z2 G>A B2 c>d | z2 F>G A2 [Ac]>[Ac] | [Af]2 [Af]2 [Ge]2 [GA]>[GA] | [Fd]2 [Fd]2 [Fc]2 [Ac]2 | %18
w: * * * far, o’er|* * * night, Till|* world shall come where|the young Child lay,|
w: ||||
w: ||||
 [Ff]2 [Fc]>[DB] [CA]2 [EG]>[EA] | [DF]2 [DF]2 [CF]4 |] %20
w: And en- ter the gates of|the new- born|
w: ||
w: ||
V:2
 x2 | x8 | x8 | x8 | x8 | x8 | x8 | x8 | x8 | x8 | x6 || x2 | c6 x2 | c6 x2 | c6 x2 | c6 x2 | x8 | %17
w: ||||||||||||ly|a-|the|the||
 x8 | x8 | x8 |] %20
w: |||
V:3
 [F,A,]>[F,B,] | [F,C]2 [F,C]2 [F,C]2 [F,C]2 | C,[C,D,][C,E,][C,F,] [C,G,]2 [C,C]>[C,C] | %3
w: ~ ~|~ ~ ~ ~|~ ~ ~ ~ ~ ~ ~|
 [C,C]2 [C,C]2 [C,C]2 [C,C]2 | F,[F,G,][F,A,][F,B,] [F,C]2 [F,C]>[F,C] | %5
w: ~ ~ ~ ~|~ ~ ~ ~ ~ ~ ~|
 [D,D]2 [D,D]2 [A,^C]2 [A,C][A,C] | [B,D]2 B,2 [F,A,]2 [F,C][F,C] | [D,D]2 [D,D]2 [A,^C]2 [A,C]2 | %8
w: ~ ~ ~ ~ ~|~ ~ ~ ~ ~|~ ~ ~ ~|
 [B,D][B,D]B,B, [F,A,]2 [C,C]>[C,B,] | [D,A,]2 [D,A,]2 [B,,B,]2 [B,,B,]2 | [F,A,]4 z2 || z2 | %12
w: ~ ~ ~ ~ ~ ~ ~|Sil- ver star, ho-|ly||
 z2 [C,C]>[E,C] [G,C]2 z2 | z2 [F,C]>[G,C] [A,C]2 z2 | z2 [B,C]>[A,C] [G,B,]2 z2 | %15
w: light, Shine a-|far, o’er the|night, * *|
 z2 [A,C]>[G,C] [F,C]2 [F,C]>[F,C] | [D,D]2 [D,D]2 [A,^C]2 [A,C]>[A,C] | %17
w: ||
 [B,D]2 B,2 [F,A,]2 [F,C]2 | [F,A,]2 [A,,F,]>[B,,F,] [C,F,]2 [C,B,]>[C,C] | %19
w: ||
 [D,A,]2 [B,,B,]2 [F,A,]4 |] %20
w: |
V:4
 x2 | x8 | C, x7 | x8 | F, x7 | x8 | x2 B,2 x4 | x8 | x2 B,B, x4 | x8 | x6 || x2 | x8 | x8 | x8 | %15
w: ||~||~||~||~ ~|||||||
 x8 | x8 | x2 B,2 x4 | x8 | x8 |] %20
w: |||||

